src/icons/svgs/16/text-slash.svg

<svg width="16" height="16" viewBox="0 0 16 16" fill="none" xmlns="http://www.w3.org/2000/svg">
<g clip-path="url(#clip0)">
<path fill-rule="evenodd" clip-rule="evenodd" d="M15.0399 1.52059C15.3274 1.22242 15.3188 0.747625 15.0206 0.460105C14.7224 0.172585 14.2476 0.181218 13.9601 0.479386L11.5295 3L3 3C1.89543 3 1 3.89543 1 5L1 11C1 11.7788 1.44518 12.4537 2.09496 12.784L0.460115 14.4794C0.172595 14.7776 0.181227 15.2524 0.479397 15.5399C0.777566 15.8274 1.25236 15.8188 1.53988 15.5206L15.0399 1.52059ZM3.58056 11.2434L2.92011 11.9283L2 11.9283L4.32882 4.39725L5.9356 4.39725L6.96332 7.73532L5.94949 8.7867L5.12712 5.83725L5.0661 5.83725L4.21695 8.88276L5.85686 8.88276L4.7875 9.99173L3.93221 9.99173L3.58056 11.2434ZM7.74227 10.2654L9.02204 8.93821L9.02204 9.43449C9.02204 11.04 9.81526 12 11.0356 12C11.8186 12 12.4492 11.5862 12.617 10.9903L12.6831 10.9903L12.6831 11.9283L14 11.9283L14 4L13.7839 4L14.2919 3.47318C14.725 3.84005 15 4.38791 15 5L15 11C15 12.1046 14.1046 13 13 13L5.10531 13L6.64688 11.4013L6.79492 11.9283L8.25424 11.9283L7.74227 10.2654ZM12.6576 6.96276L12.6576 5.16797L11.7437 6.11578C12.1545 6.26962 12.4578 6.56606 12.5966 6.96276L12.6576 6.96276ZM12.6576 8.58483C12.6576 7.70759 12.1695 7.15587 11.4983 7.15587C10.822 7.15587 10.3949 7.71311 10.3949 8.71173L10.3949 9.28C10.3949 10.2841 10.8271 10.8469 11.5186 10.8469C12.2 10.8469 12.6576 10.2952 12.6576 9.34069L12.6576 8.58483Z" fill="black"/>
</g>
<defs>
<clipPath id="clip0">
<rect width="16" height="16" fill="white"/>
</clipPath>
</defs>
</svg>

<svg width="16" height="16" viewBox="0 0 16 16" xmlns="http://www.w3.org/2000/svg">
    <g clip-path="url(#a)">
        <path fill-rule="evenodd" clip-rule="evenodd" d="M15.04 1.52A.75.75 0 1 0 13.96.48L11.53 3H3a2 2 0 0 0-2 2v6a2 2 0 0 0 1.095 1.784L.46 14.479a.75.75 0 0 0 1.08 1.042l13.5-14zM3.58 11.244l-.66.685H2l2.329-7.53h1.607l1.027 3.337L5.95 8.787l-.822-2.95h-.06l-.85 3.046h1.64l-1.07 1.109h-.855l-.351 1.251zm4.162-.978 1.28-1.327v.496c0 1.606.793 2.566 2.014 2.566.783 0 1.413-.414 1.581-1.01h.066v.938H14V4h-.216l.508-.527C14.725 3.84 15 4.388 15 5v6a2 2 0 0 1-2 2H5.105l1.542-1.599.148.527h1.46l-.513-1.663zm4.916-3.302V5.168l-.914.948c.41.154.714.45.853.847h.06zm0 1.622c0-.877-.489-1.43-1.16-1.43-.676 0-1.103.558-1.103 1.557v.568c0 1.004.432 1.567 1.124 1.567.681 0 1.139-.552 1.139-1.506v-.756z"/>
    </g>
    <defs>
        <clipPath id="a">
            <path fill="#fff" d="M0 0h16v16H0z"/>
        </clipPath>
    </defs>
</svg>
